img/rectangle-4-1.svg

<svg fill="none" height="47" viewBox="0 0 32 47" width="32" xmlns="http://www.w3.org/2000/svg"><path d="m23.4974 39.4237h-.0002l-.4986-.0644.0892.4945v.0002l.0001.0003.0002.0014.0018.0107c.0016.0102.0041.0265.0071.0484.006.0438.0142.1102.0218.1959.0153.1715.0284.4192.0186.7174-.0197.5985-.1311 1.3876-.491 2.171-.3577.7785-.9635 1.5583-1.9876 2.1472-1.0276.5909-2.4987 1.0022-4.604 1.0022h-.0361-.0362-.0363-.0363-.0364-.0365-.0366-.0367-.0367-.0368-.0369-.0369-.037-.0371-.0372-.0372-.0373-.0374-.0374-.0375-.0376-.0376-.0378-.0377-.0379-.0379-.0379-.0381-.038-.0382-.0382-.0383-.0383-.0384-.0385-.0385-.0386-.0386-.0387-.0387-.0388-.0389-.0389-.0389-.0391-.039-.0391-.0392-.0392-.0393-.0393-.0394-.0394-.0395-.0395-.0396-.0396-.0396-.0397-.0398-.0398-.0398-.0399-.0399-.0399-.04-.0401-.0401-.0401-.0401-.0402-.0403-.0402-.0403-.0404-.0404-.0404-.0404-.0405-.0405-.0406-.0405-.0407-.0406-.0407-.0407-.0407-.0407-.0408-.0408-.0409-.0408-.0409-.0409-.041-.0409-.041-.041-.041-.0411-.0411-.041-.0412-.0411-.0411-.0412-.0412-.0412-.0412-.0412-.0413-.0412-.0413-.0413-.0413-.0413-.0413-.0413-.0414-.0413-.0414-.0413-.0414-.0414-.0414-.0414-.0414-.0414-.0414-.0414-.0414-.0414-.0415-.0414-.0414-.0414-.0414-.0415-.0414-.0414-.0414-.0414-.0414-.0414-.0414-.0414-.0414-.0414-.0414-.0413-.0414-.0413-.04137-.04132-.04132-.0413-.04129-.04128-.04127-.04125-.04124-.04122-.04121-.04119-.04117-.04116-.04114-.04112-.0411-.04108-.04106-.04104-.04102-.041-.04098-.04095-.04092-.04091-.04088-.04085-.04083-.0408-.04077-.04074-.04072-.04069-.04066-.04062-.0406-.04057-.04053-.0405-.04047-.04043-.0404-.04037-.04033-.04029-.04026-.04022-.04018-.04015-.0401-.04007-.04002-.03999-.03994-.0399-.03986-.03982-.03977-.03973-.03968-.03964-.03959-.03955-.0395-.03945-.0394-.03936-.0393-.03926-.0392-.03915-.0391-.03905-.039-.03894-.03889-.03883-.03878-.03872-.03867-.0386-.03856-.03849-.03843-.03838-.03831-.03826-.03819-.03813-.03807-.038-.03795-.03788-.03781-.03775-.03768-.03762-.03755-.03748-.03741-.03735-.03728-.0372-.03714-.03706-.037-.03692-.03684-.03678-.0367-.03663-.03655-.03647-.0364-.03632-.03625-.03616-.03609-.03601-.03593-.03585-.03577-.03568-.03561-.03552-.03543-.03536-.03527-.03518-.0351-.03501-.03493-.03484-.03475-.03466-.03457-.03448-.0344-.0343-.03421-.03412-.03402-.03393-.03384-.03375-.03365-.03355-.03346-.03336-.03326-.03317-.03306-.03297-.03287-.03277-.03266-.03257-.03246-.03236-.03226-.03216-.03205-.03194-.03184-.03173-.03163-.03152-.03141-.0313-.0312-.03108-.03098-.03086-.03075-.03064-.03053-.03042-.0303-.03018-.03008-.02995-.02984-.02973-.02961-.02948-.02938-.02925-.02913-.02901-.02889-.02877-.02865-.02853-.0284-.02828-.02816-.02803-.0279-.02778-.02765-.02753-.0274-.02727-.02714-.02701-.02688-.02675-.02662-.02649-.02635-.02623-.02609-.02595-.02582-.02569-.02554-.02542-.02527-.02514-.025-.02486-.02472-.02459-.02444-.0243-.02416-.02401-.02387-.02373-.02359-.02344-.0233-.02315-.023-.02286-.02271-.02256-.02241-.02226-.02212-.02196-.02181-.02166-.02151-.02136-.0212-.02105-.02089-.02074-.02058-.02043-.02027-.02011-.01995-.0198-.01963-.01948-.01931-.01916-.01899-.01883-.01867-.01851-.01834-.01818-.01801-.01784-.01768-.01752-.01734-.01718-.01701-.01684-.01667-.0165-.016329-.016157-.015986-.015813-.01564-.015466-.015291-.015117-.014941-.014765-.014588-.014411-.014233-.014054-.013875-.013696-.013516-.013334-.013154-.012971-.012789-.012605-.012422-.012238-.006604v-45.01217h30.888165v.01572.02056.02108.02158.02209.0226.02309.0236.0241.0246.02509.02558.02607.02656.02705.02754.02802.0285.02898.02945.02993.03041.03087.03135.03181.03228.03274.03321.03366.03412.03458.03503.03548.03594.03638.03682.03727.03772.03815.03859.03903.03946.03989.04032.04075.04118.04161.04202.04245.04286.04328.04369.04411.04452.04493.04533.04574.04614.04654.04694.04734.04773.04813.04852.0489.0493.04967.05007.05044.05082.0512.05158.05194.05232.05269.05306.05342.05379.05414.05451.05487.05522.05557.05593.05627.05663.05697.05731.05766.05799.05834.05867.059.05934.05967.05999.06032.06065.06097.06129.06161.06192.06224.06255.06286.06317.06348.06378.06409.06438.06469.06498.06528.06557.06586.06615.06643.06673.067.06729.06756.06785.06812.06839.06866.06894.0692.06946.06973.06999.07026.0705.07077.07102.07127.07152.07177.07201.07226.0725.07274.07298.07321.07345.07368.07391.07414.07437.07459.07481.07504.07525.07547.07568.0759.0761.07632.07652.07673.07692.07714.07732.07753.07772.07792.07807.0783.0785.0787.0788.0791.0792.0794.0795.0798.0799.08.0803.0804.0806.0807.0809.0811.0812.0813.0815.0817.0818.082.0821.0822.0824.0825.0827.0828.0829.0831.0832.0833.0834.0836.0836.0838.084.084.0841.0843.0843.0845.0846.0846.0848.0849.085.085.0852.0852.0854.0854.0855.0856.0857.0857.0859.0859.086.086.0861.0862.0863.0863.0864.0864.0865.0866.0866.0867.0867.0867.0868.0869.0869.0869.087.087.087.0871.0871.0871.0872.0872.0872.0872.0872.0873.0873.0872.0873.0873.0874.0873.0873.0873.0873.0874.0873.0873.0873.0873.0872.0873.0872.0872.0872.0872.0872.0871.0871.0871.087.087.087.0869.0869.0868.0868.0868.0867.0867.0866.0865.0865.0864.0864.0863.0863.0862.0861.086.086.0859.0858.0858.0857.0855.0856.0854.0853.0852.0852.0851.0849.0849.0848.0846.0846.0844.0844.0842.0842.084.0839.0838.0836.0836.0834.0833.0832.083.083.0827.0827.0825.0824.0822.0821.0819.0818.0817.0815.0814.0811.0811.0809.0807.0806.0804.0802.0801.0798.0798.0795.0794.0792.079.0788.0787.0785.0782.0781.0779.0777.0775.0774.0771.0769.0767.0765.0763.0761.0759.0756.0755.0752.075.0748.0746.0743.0742.0739.0736.0735.0731.073.0727.0725.0722.072.0718.0715.0712.071.0708.0705.0702.07.0697.0694.0692.0689.0687.0683.0681.0678.0676.0672.067.0667.0664.0662.0658.0656.0652.065.0646.0644.064.0638.0635.0631.0628.0626.0622.0619.0616.0612.061.0606.0603.0599.0597.0593.059.0586.0583.058.0576.0573.057.0565.0563.0559.0555.0552.0549.0544.0542.0537.0534.053.0527.0523.0519.0515.0512.0508.0504.05.0497.0493.0488.0485.0481.0477.0473.0469.0465.0461.0458.0452.0449.0445.0441.0437.0432.0428c0 1.7418-.5044 2.9488-1.2331 3.7942-.7338.8513-1.7218 1.3667-2.7362 1.6717-1.0143.3049-2.0355.3935-2.8083.4045-.3852.0054-.7056-.0084-.9286-.0235-.1114-.0076-.1984-.0154-.2567-.0213-.0291-.0029-.0511-.0053-.0654-.007l-.0156-.0018-.0033-.0004z" stroke="#fff500" stroke-width=".736523"/></svg>

<svg width="32" height="47" viewBox="0 0 32 47" fill="none" xmlns="http://www.w3.org/2000/svg">
<path d="M23.4974 39.4237L23.4972 39.4237L22.9986 39.3593L23.0878 39.8538L23.0878 39.8538L23.0878 39.854L23.0879 39.8543L23.0881 39.8557L23.0899 39.8664C23.0915 39.8766 23.094 39.8929 23.097 39.9148C23.103 39.9586 23.1112 40.025 23.1188 40.1107C23.1341 40.2822 23.1472 40.5299 23.1374 40.8281C23.1177 41.4266 23.0063 42.2157 22.6464 42.9991C22.2887 43.7776 21.6829 44.5574 20.6588 45.1463C19.6312 45.7372 18.1601 46.1485 16.0548 46.1485H16.0187H15.9825H15.9462H15.9099H15.8735H15.837H15.8004H15.7637H15.727H15.6902H15.6533H15.6164H15.5794H15.5423H15.5051H15.4679H15.4306H15.3932H15.3558H15.3183H15.2807H15.2431H15.2053H15.1676H15.1297H15.0918H15.0539H15.0158H14.9778H14.9396H14.9014H14.8631H14.8248H14.7864H14.7479H14.7094H14.6708H14.6322H14.5935H14.5548H14.516H14.4771H14.4382H14.3993H14.3602H14.3212H14.2821H14.2429H14.2037H14.1644H14.1251H14.0857H14.0463H14.0068H13.9673H13.9277H13.8881H13.8485H13.8088H13.769H13.7292H13.6894H13.6495H13.6096H13.5697H13.5297H13.4896H13.4495H13.4094H13.3693H13.3291H13.2888H13.2486H13.2083H13.1679H13.1275H13.0871H13.0467H13.0062H12.9657H12.9251H12.8846H12.8439H12.8033H12.7626H12.7219H12.6812H12.6405H12.5997H12.5589H12.518H12.4772H12.4363H12.3954H12.3544H12.3135H12.2725H12.2315H12.1905H12.1494H12.1083H12.0673H12.0261H11.985H11.9439H11.9027H11.8615H11.8203H11.7791H11.7379H11.6966H11.6554H11.6141H11.5728H11.5315H11.4902H11.4489H11.4076H11.3662H11.3249H11.2835H11.2422H11.2008H11.1594H11.118H11.0766H11.0352H10.9938H10.9524H10.911H10.8696H10.8282H10.7867H10.7453H10.7039H10.6625H10.6211H10.5796H10.5382H10.4968H10.4554H10.414H10.3726H10.3312H10.2898H10.2484H10.207H10.1656H10.1242H10.0829H10.0415H10.0002H9.95883H9.91751H9.87619H9.83489H9.7936H9.75232H9.71105H9.6698H9.62856H9.58734H9.54613H9.50494H9.46377H9.42261H9.38147H9.34035H9.29925H9.25817H9.21711H9.17607H9.13505H9.09405H9.05307H9.01212H8.9712H8.93029H8.88941H8.84856H8.80773H8.76693H8.72616H8.68542H8.6447H8.60401H8.56335H8.52273H8.48213H8.44156H8.40103H8.36053H8.32006H8.27963H8.23923H8.19886H8.15853H8.11824H8.07798H8.03776H7.99758H7.95743H7.91733H7.87726H7.83724H7.79725H7.75731H7.71741H7.67755H7.63773H7.59796H7.55823H7.51855H7.47891H7.43932H7.39977H7.36027H7.32082H7.28142H7.24206H7.20276H7.1635H7.1243H7.08515H7.04605H7.007H6.968H6.92906H6.89017H6.85134H6.81256H6.77384H6.73517H6.69657H6.65801H6.61952H6.58109H6.54271H6.5044H6.46614H6.42795H6.38982H6.35175H6.31375H6.2758H6.23792H6.20011H6.16236H6.12468H6.08706H6.04951H6.01203H5.97462H5.93727H5.89999H5.86279H5.82565H5.78859H5.75159H5.71467H5.67783H5.64105H5.60435H5.56772H5.53117H5.4947H5.4583H5.42198H5.38573H5.34957H5.31348H5.27747H5.24154H5.20569H5.16992H5.13424H5.09863H5.06311H5.02768H4.99232H4.95705H4.92187H4.88677H4.85176H4.81683H4.78199H4.74724H4.71258H4.67801H4.64353H4.60913H4.57483H4.54062H4.5065H4.47248H4.43855H4.40471H4.37096H4.33731H4.30376H4.2703H4.23694H4.20368H4.17051H4.13745H4.10448H4.07161H4.03884H4.00618H3.97361H3.94115H3.90879H3.87653H3.84437H3.81232H3.78038H3.74854H3.71681H3.68518H3.65366H3.62225H3.59095H3.55975H3.52867H3.49769H3.46683H3.43608H3.40544H3.37491H3.34449H3.31419H3.28401H3.25393H3.22398H3.19414H3.16441H3.1348H3.10532H3.07594H3.04669H3.01756H2.98855H2.95966H2.93089H2.90224H2.87371H2.84531H2.81703H2.78887H2.76084H2.73294H2.70516H2.67751H2.64998H2.62258H2.59531H2.56817H2.54116H2.51428H2.48753H2.46091H2.43442H2.40807H2.38184H2.35575H2.3298H2.30398H2.27829H2.25275H2.22733H2.20206H2.17692H2.15192H2.12706H2.10234H2.07775H2.05331H2.02901H2.00485H1.98084H1.95697H1.93324H1.90965H1.88621H1.86291H1.83976H1.81676H1.7939H1.77119H1.74863H1.72622H1.70396H1.68184H1.65988H1.63807H1.61641H1.5949H1.57354H1.55234H1.53129H1.5104H1.48966H1.46908H1.44865H1.42838H1.40827H1.38832H1.36852H1.34889H1.32941H1.3101H1.29094H1.27195H1.25312H1.23445H1.21594H1.1976H1.17942H1.16141H1.14357H1.12589H1.10837H1.09103H1.07385H1.05684H1.04H1.02333H1.00683H0.990501H0.974344H0.958358H0.942545H0.926905H0.911439H0.896148H0.881031H0.86609H0.851325H0.836737H0.822326H0.808093H0.794039H0.780164H0.766468H0.752952H0.739618H0.726464H0.713493H0.700704H0.688099H0.675677H0.663439H0.656835V1.13633H31.545V1.15205V1.17261V1.19369V1.21527V1.23736V1.25996V1.28305V1.30665V1.33075V1.35535V1.38044V1.40602V1.43209V1.45865V1.4857V1.51324V1.54126V1.56976V1.59874V1.62819V1.65812V1.68853V1.7194V1.75075V1.78256V1.81484V1.84758V1.88079V1.91445V1.94857V1.98315V2.01818V2.05366V2.0896V2.12598V2.1628V2.20007V2.23779V2.27594V2.31453V2.35356V2.39302V2.43291V2.47323V2.51398V2.55516V2.59677V2.63879V2.68124V2.7241V2.76738V2.81107V2.85518V2.8997V2.94463V2.98996V3.0357V3.08184V3.12838V3.17532V3.22266V3.27039V3.31852V3.36704V3.41594V3.46524V3.51491V3.56498V3.61542V3.66624V3.71744V3.76902V3.82096V3.87328V3.92597V3.97903V4.03245V4.08624V4.14038V4.19489V4.24976V4.30498V4.36055V4.41648V4.47275V4.52938V4.58635V4.64366V4.70132V4.75931V4.81765V4.87632V4.93532V4.99466V5.05433V5.11432V5.17464V5.23529V5.29626V5.35755V5.41916V5.48108V5.54332V5.60587V5.66873V5.7319V5.79538V5.85916V5.92325V5.98763V6.05232V6.1173V6.18258V6.24815V6.31401V6.38016V6.44659V6.51332V6.58032V6.64761V6.71517V6.78302V6.85114V6.91953V6.98819V7.05713V7.12633V7.19579V7.26552V7.33551V7.40577V7.47627V7.54704V7.61806V7.68933V7.76085V7.83262V7.90463V7.97689V8.04939V8.12213V8.19511V8.26832V8.34177V8.41545V8.48936V8.5635V8.63787V8.71246V8.78727V8.86231V8.93756V9.01303V9.08871V9.16461V9.24071V9.31703V9.39355V9.47028V9.5472V9.62434V9.70166V9.77919V9.85691V9.93483V10.0129V10.0912V10.1697V10.2484V10.3272V10.4063V10.4855V10.5649V10.6444V10.7242V10.8041V10.8841V10.9644V11.0448V11.1254V11.2061V11.287V11.3681V11.4493V11.5306V11.6121V11.6938V11.7756V11.8576V11.9397V12.0219V12.1043V12.1868V12.2695V12.3523V12.4352V12.5183V12.6015V12.6848V12.7682V12.8518V12.9354V13.0192V13.1032V13.1872V13.2713V13.3556V13.4399V13.5244V13.609V13.6936V13.7784V13.8633V13.9483V14.0333V14.1185V14.2037V14.2891V14.3745V14.46V14.5456V14.6313V14.717V14.8029V14.8888V14.9748V15.0608V15.1469V15.2331V15.3194V15.4057V15.4921V15.5785V15.665V15.7516V15.8382V15.9249V16.0116V16.0983V16.1851V16.272V16.3589V16.4458V16.5328V16.6198V16.7068V16.7939V16.881V16.9681V17.0553V17.1425V17.2297V17.3169V17.4041V17.4914V17.5787V17.6659V17.7532V17.8405V17.9279V18.0152V18.1025V18.1898V18.2771V18.3645V18.4518V18.5391V18.6264V18.7137V18.8009V18.8882V18.9754V19.0626V19.1498V19.237V19.3242V19.4113V19.4984V19.5855V19.6725V19.7595V19.8465V19.9334V20.0203V20.1071V20.1939V20.2807V20.3674V20.4541V20.5407V20.6272V20.7137V20.8001V20.8865V20.9728V21.0591V21.1453V21.2314V21.3174V21.4034V21.4893V21.5751V21.6609V21.7466V21.8321V21.9177V22.0031V22.0884V22.1736V22.2588V22.3439V22.4288V22.5137V22.5985V22.6831V22.7677V22.8521V22.9365V23.0207V23.1049V23.1889V23.2728V23.3566V23.4402V23.5238V23.6072V23.6905V23.7737V23.8567V23.9397V24.0224V24.1051V24.1876V24.27V24.3522V24.4343V24.5162V24.598V24.6797V24.7612V24.8426V24.9237V25.0048V25.0857V25.1664V25.247V25.3274V25.4076V25.4877V25.5675V25.6473V25.7268V25.8062V25.8854V25.9644V26.0432V26.1219V26.2004V26.2786V26.3567V26.4346V26.5123V26.5898V26.6672V26.7443V26.8212V26.8979V26.9744V27.0507V27.1268V27.2027V27.2783V27.3538V27.429V27.504V27.5788V27.6534V27.7277V27.8019V27.8758V27.9494V28.0229V28.096V28.169V28.2417V28.3142V28.3864V28.4584V28.5302V28.6017V28.6729V28.7439V28.8147V28.8852V28.9554V29.0254V29.0951V29.1645V29.2337V29.3026V29.3713V29.4396V29.5077V29.5755V29.6431V29.7103V29.7773V29.844V29.9104V29.9766V30.0424V30.108V30.1732V30.2382V30.3028V30.3672V30.4312V30.495V30.5585V30.6216V30.6844V30.747V30.8092V30.8711V30.9327V30.9939V31.0549V31.1155V31.1758V31.2357V31.2954V31.3547V31.4137V31.4723V31.5306V31.5886V31.6462V31.7035V31.7605V31.817V31.8733V31.9292V31.9847V32.0399V32.0948V32.1492V32.2034V32.2571V32.3105V32.3635V32.4162V32.4685V32.5204V32.5719V32.6231V32.6739V32.7243V32.7743V32.824V32.8733V32.9221V32.9706V33.0187V33.0664V33.1137V33.1606V33.2071V33.2532V33.299V33.3442V33.3891V33.4336V33.4777V33.5214V33.5646V33.6074C31.545 35.3492 31.0406 36.5562 30.3119 37.4016C29.5781 38.2529 28.5901 38.7683 27.5757 39.0733C26.5614 39.3782 25.5402 39.4668 24.7674 39.4778C24.3822 39.4832 24.0618 39.4694 23.8388 39.4543C23.7274 39.4467 23.6404 39.4389 23.5821 39.433C23.553 39.4301 23.531 39.4277 23.5167 39.426L23.5011 39.4242L23.4978 39.4238L23.4974 39.4237Z" stroke="#FFF500" stroke-width="0.736523"/>
</svg>
